icons/order.svg

<svg enable-background="new 0 0 512 512" viewBox="0 0 512 512" xmlns="http://www.w3.org/2000/svg"><path d="m492 236h-347.738c-11.046 0-20 8.954-20 20s8.954 20 20 20h347.738c11.046 0 20-8.954 20-20s-8.954-20-20-20z"/><path d="m492 86h-347.738c-11.046 0-20 8.954-20 20s8.954 20 20 20h347.738c11.046 0 20-8.954 20-20s-8.954-20-20-20z"/><path d="m492 386h-347.738c-11.046 0-20 8.954-20 20s8.954 20 20 20h347.738c11.046 0 20-8.954 20-20s-8.954-20-20-20z"/><circle cx="27" cy="106" r="27"/><circle cx="27" cy="256" r="27"/><circle cx="27" cy="406" r="27"/></svg>

<?xml version="1.0" encoding="iso-8859-1"?>
<svg version="1.1" id="Capa_1" xmlns="http://www.w3.org/2000/svg" xmlns:xlink="http://www.w3.org/1999/xlink" x="0px" y="0px"
	 viewBox="0 0 512 512" style="enable-background:new 0 0 512 512;" xml:space="preserve">
<g>
	<g>
		<path d="M492,236H144.262c-11.046,0-20,8.954-20,20s8.954,20,20,20H492c11.046,0,20-8.954,20-20C512,244.954,503.046,236,492,236z
			"/>
	</g>
</g>
<g>
	<g>
		<path d="M492,86H144.262c-11.046,0-20,8.954-20,20s8.954,20,20,20H492c11.046,0,20-8.954,20-20S503.046,86,492,86z"/>
	</g>
</g>
<g>
	<g>
		<path d="M492,386H144.262c-11.046,0-20,8.954-20,20c0,11.046,8.954,20,20,20H492c11.046,0,20-8.954,20-20
			C512,394.954,503.046,386,492,386z"/>
	</g>
</g>
<g>
	<g>
		<circle cx="27" cy="106" r="27"/>
	</g>
</g>
<g>
	<g>
		<circle cx="27" cy="256" r="27"/>
	</g>
</g>
<g>
	<g>
		<circle cx="27" cy="406" r="27"/>
	</g>
</g>
<g>
</g>
<g>
</g>
<g>
</g>
<g>
</g>
<g>
</g>
<g>
</g>
<g>
</g>
<g>
</g>
<g>
</g>
<g>
</g>
<g>
</g>
<g>
</g>
<g>
</g>
<g>
</g>
<g>
</g>
</svg>
